Newaita/actions/24/applications-system.svg

<?xml version="1.0" encoding="UTF-8"?>
<svg xmlns="http://www.w3.org/2000/svg" xmlns:xlink="http://www.w3.org/1999/xlink" width="24pt" height="24pt" viewBox="0 0 24 24" version="1.1">
<defs>
<filter id="alpha" filterUnits="objectBoundingBox" x="0%" y="0%" width="100%" height="100%">
  <feColorMatrix type="matrix" in="SourceGraphic" values="0 0 0 0 1 0 0 0 0 1 0 0 0 0 1 0 0 0 1 0"/>
</filter>
<mask id="mask0">
  <g filter="url(#alpha)">
<rect x="0" y="0" width="24" height="24" style="fill:rgb(0%,0%,0%);fill-opacity:0.988235;stroke:none;"/>
  </g>
</mask>
<clipPath id="clip1">
  <rect x="0" y="0" width="24" height="24"/>
</clipPath>
<g id="surface5" clip-path="url(#clip1)">
<path style=" stroke:none;fill-rule:nonzero;fill:rgb(47.058824%,56.470591%,61.176473%);fill-opacity:1;" d="M 8.929688 1.179688 C 8.378906 1.179688 7.9375 1.589844 7.9375 2.101562 L 7.9375 2.777344 C 7.4375 2.890625 6.972656 3.085938 6.550781 3.351562 L 6.074219 2.871094 C 5.710938 2.511719 5.109375 2.535156 4.71875 2.921875 C 4.332031 3.3125 4.308594 3.914062 4.671875 4.277344 L 5.148438 4.753906 C 4.882812 5.175781 4.6875 5.640625 4.574219 6.140625 L 3.898438 6.140625 C 3.386719 6.140625 2.976562 6.582031 2.976562 7.132812 C 2.976562 7.683594 3.386719 8.125 3.898438 8.125 L 4.574219 8.125 C 4.6875 8.625 4.882812 9.09375 5.148438 9.511719 L 4.671875 9.992188 C 4.308594 10.351562 4.332031 10.953125 4.71875 11.34375 C 5.109375 11.730469 5.710938 11.753906 6.074219 11.394531 L 6.550781 10.917969 C 6.972656 11.179688 7.4375 11.375 7.9375 11.488281 L 7.9375 12.167969 C 7.9375 12.675781 8.378906 13.085938 8.929688 13.085938 C 9.480469 13.085938 9.921875 12.675781 9.921875 12.167969 L 9.921875 11.488281 C 10.421875 11.375 10.890625 11.179688 11.308594 10.917969 L 11.789062 11.394531 C 12.148438 11.753906 12.75 11.730469 13.140625 11.34375 C 13.527344 10.953125 13.550781 10.351562 13.191406 9.992188 L 12.714844 9.511719 C 12.976562 9.09375 13.171875 8.625 13.285156 8.125 L 13.964844 8.125 C 14.472656 8.125 14.882812 7.683594 14.882812 7.132812 C 14.882812 6.582031 14.472656 6.140625 13.964844 6.140625 L 13.285156 6.140625 C 13.171875 5.640625 12.976562 5.175781 12.714844 4.753906 L 13.191406 4.277344 C 13.550781 3.914062 13.527344 3.3125 13.140625 2.921875 C 12.75 2.535156 12.148438 2.511719 11.789062 2.871094 L 11.308594 3.351562 C 10.890625 3.085938 10.421875 2.890625 9.921875 2.777344 L 9.921875 2.101562 C 9.921875 1.589844 9.480469 1.179688 8.929688 1.179688 Z M 8.929688 4.652344 C 10.304688 4.652344 11.410156 5.757812 11.410156 7.132812 C 11.410156 8.507812 10.304688 9.613281 8.929688 9.613281 C 7.554688 9.613281 6.449219 8.507812 6.449219 7.132812 C 6.449219 5.757812 7.554688 4.652344 8.929688 4.652344 Z M 8.929688 4.652344 "/>
</g>
<mask id="mask1">
  <g filter="url(#alpha)">
<rect x="0" y="0" width="24" height="24" style="fill:rgb(0%,0%,0%);fill-opacity:0.988235;stroke:none;"/>
  </g>
</mask>
<clipPath id="clip2">
  <rect x="0" y="0" width="24" height="24"/>
</clipPath>
<g id="surface8" clip-path="url(#clip2)">
<path style=" stroke:none;fill-rule:nonzero;fill:rgb(25.882354%,25.882354%,25.882354%);fill-opacity:1;" d="M 15.488281 11.101562 C 14.941406 11.101562 14.496094 11.511719 14.496094 12.023438 L 14.496094 12.699219 C 14 12.8125 13.53125 13.007812 13.109375 13.273438 L 12.632812 12.796875 C 12.273438 12.433594 11.667969 12.457031 11.28125 12.847656 C 10.890625 13.234375 10.867188 13.839844 11.230469 14.199219 L 11.707031 14.675781 C 11.441406 15.097656 11.246094 15.5625 11.132812 16.0625 L 10.457031 16.0625 C 9.945312 16.0625 9.535156 16.507812 9.535156 17.054688 C 9.535156 17.605469 9.945312 18.046875 10.457031 18.046875 L 11.132812 18.046875 C 11.246094 18.546875 11.441406 19.015625 11.707031 19.4375 L 11.230469 19.914062 C 10.867188 20.273438 10.890625 20.878906 11.28125 21.265625 C 11.667969 21.65625 12.273438 21.675781 12.632812 21.316406 L 13.109375 20.839844 C 13.53125 21.101562 14 21.300781 14.496094 21.410156 L 14.496094 22.089844 C 14.496094 22.597656 14.941406 23.011719 15.488281 23.011719 C 16.039062 23.011719 16.484375 22.597656 16.484375 22.089844 L 16.484375 21.410156 C 16.980469 21.300781 17.449219 21.101562 17.871094 20.839844 L 18.347656 21.316406 C 18.707031 21.675781 19.3125 21.65625 19.699219 21.265625 C 20.089844 20.878906 20.113281 20.273438 19.75 19.914062 L 19.273438 19.4375 C 19.539062 19.015625 19.734375 18.546875 19.84375 18.046875 L 20.523438 18.046875 C 21.035156 18.046875 21.445312 17.605469 21.445312 17.054688 C 21.445312 16.507812 21.035156 16.0625 20.523438 16.0625 L 19.84375 16.0625 C 19.734375 15.5625 19.539062 15.097656 19.273438 14.675781 L 19.75 14.199219 C 20.113281 13.839844 20.089844 13.234375 19.699219 12.847656 C 19.3125 12.457031 18.707031 12.433594 18.347656 12.796875 L 17.871094 13.273438 C 17.449219 13.007812 16.980469 12.8125 16.484375 12.699219 L 16.484375 12.023438 C 16.484375 11.511719 16.039062 11.101562 15.488281 11.101562 Z M 15.488281 14.574219 C 16.863281 14.574219 17.972656 15.683594 17.972656 17.054688 C 17.972656 18.429688 16.863281 19.535156 15.488281 19.535156 C 14.117188 19.535156 13.007812 18.429688 13.007812 17.054688 C 13.007812 15.683594 14.117188 14.574219 15.488281 14.574219 Z M 15.488281 14.574219 "/>
</g>
</defs>
<g id="surface1">
<use xlink:href="#surface5" mask="url(#mask0)"/>
<use xlink:href="#surface8" mask="url(#mask1)"/>
</g>
</svg>

<svg xmlns="http://www.w3.org/2000/svg" xmlns:xlink="http://www.w3.org/1999/xlink" width="32" height="32" viewBox="0 0 24 24"><defs><filter id="a" filterUnits="objectBoundingBox" x="0%" y="0%" width="100%" height="100%"><feColorMatrix in="SourceGraphic" values="0 0 0 0 1 0 0 0 0 1 0 0 0 0 1 0 0 0 1 0"/></filter><mask id="e"><path fill-opacity=".988" d="M0 0h24v24H0z" filter="url(#a)"/></mask><clipPath id="b"><path d="M0 0h24v24H0z"/></clipPath><g id="d" clip-path="url(#b)"><path d="M8.93 1.18c-.551 0-.992.41-.992.922v.675c-.5.114-.965.309-1.387.575l-.477-.48c-.363-.36-.965-.337-1.355.05-.387.39-.41.992-.047 1.355l.476.477c-.265.422-.46.887-.574 1.387h-.676c-.511 0-.921.441-.921.992 0 .55.41.992.921.992h.676c.114.5.309.969.574 1.387l-.476.48c-.363.36-.34.961.047 1.352.39.386.992.41 1.355.05l.477-.476c.422.262.886.457 1.386.57v.68c0 .508.442.918.993.918.55 0 .992-.41.992-.918v-.68a4.48 4.48 0 0 0 1.387-.57l.48.477c.36.359.961.335 1.352-.051.386-.39.41-.992.05-1.352l-.476-.48a4.48 4.48 0 0 0 .57-1.387h.68c.508 0 .918-.441.918-.992 0-.551-.41-.992-.918-.992h-.68a4.519 4.519 0 0 0-.57-1.387l.476-.477c.36-.363.336-.965-.05-1.355-.391-.387-.993-.41-1.352-.05l-.48.48a4.394 4.394 0 0 0-1.387-.575v-.675c0-.512-.442-.922-.992-.922zm0 3.472a2.474 2.474 0 0 1 2.48 2.48 2.474 2.474 0 0 1-2.48 2.481 2.474 2.474 0 0 1-2.48-2.48 2.474 2.474 0 0 1 2.48-2.48zm0 0" fill="#78909c"/></g><mask id="g"><path fill-opacity=".988" d="M0 0h24v24H0z" filter="url(#a)"/></mask><clipPath id="c"><path d="M0 0h24v24H0z"/></clipPath><g id="f" clip-path="url(#c)"><path d="M15.488 11.102c-.547 0-.992.41-.992.921v.676a4.47 4.47 0 0 0-1.387.574l-.476-.476c-.36-.363-.965-.34-1.352.05-.39.387-.414.993-.05 1.352l.476.477c-.266.422-.46.886-.574 1.386h-.676c-.512 0-.922.446-.922.993 0 .55.41.992.922.992h.676c.113.5.308.969.574 1.39l-.477.477c-.363.36-.34.965.051 1.352.387.39.992.41 1.352.05l.476-.476c.422.262.891.46 1.387.57v.68c0 .508.445.922.992.922.551 0 .996-.414.996-.922v-.68c.496-.11.965-.308 1.387-.57l.477.476c.359.36.965.34 1.351-.05.39-.387.414-.993.051-1.352l-.477-.477c.266-.421.461-.89.57-1.39h.68c.512 0 .922-.442.922-.992 0-.547-.41-.992-.922-.992h-.68c-.109-.5-.304-.965-.57-1.387l.477-.477c.363-.36.34-.965-.05-1.351-.387-.391-.993-.414-1.352-.051l-.477.476a4.47 4.47 0 0 0-1.387-.574v-.676c0-.511-.445-.921-.996-.921zm0 3.472a2.48 2.48 0 1 1 0 4.961 2.476 2.476 0 0 1-2.48-2.48c0-1.371 1.11-2.48 2.48-2.48zm0 0" fill="#424242"/></g></defs><use xlink:href="#d" mask="url(#e)"/><use xlink:href="#f" mask="url(#g)"/></svg>
